offer/images/mark.svg

<svg height="30" viewBox="0 0 42 30" width="42" xmlns="http://www.w3.org/2000/svg"><path d="m182.00358 15746v10.25c5.441089 0 9.99642 4.25 9.99642 9.625s-4.555331 10.125-9.99642 10.125-9.99642-4.75-9.99642-10.125c0 0-.632684-11 9.99642-19.875zm-22 0v10.25c5.441089 0 9.99642 4.25 9.99642 9.625s-4.555331 10.125-9.99642 10.125-9.99642-4.75-9.99642-10.125c0 0-.632684-11 9.99642-19.875z" fill="#d2e7ff" fill-rule="evenodd" transform="translate(-150 -15746)"/></svg>

<?xml version="1.0" encoding="UTF-8"?>
<svg width="42px" height="30px" viewBox="0 0 42 30" version="1.1" xmlns="http://www.w3.org/2000/svg" xmlns:xlink="http://www.w3.org/1999/xlink">
    <!-- Generator: Sketch 52.2 (67145) - http://www.bohemiancoding.com/sketch -->
    <title>“</title>
    <desc>Created with Sketch.</desc>
    <g id="Page-1" stroke="none" stroke-width="1" fill="none" fill-rule="evenodd">
        <g id="offer" transform="translate(-150.000000, -15746.000000)" fill="#D2E7FF">
            <path d="M182.00358,15746 L182.00358,15756.25 C187.444669,15756.25 192,15760.5 192,15765.875 C192,15771.25 187.444669,15776 182.00358,15776 C176.562491,15776 172.00716,15771.25 172.00716,15765.875 C172.00716,15765.875 171.374476,15754.875 182.00358,15746 Z M160.00358,15746 L160.00358,15756.25 C165.444669,15756.25 170,15760.5 170,15765.875 C170,15771.25 165.444669,15776 160.00358,15776 C154.562491,15776 150.00716,15771.25 150.00716,15765.875 C150.00716,15765.875 149.374476,15754.875 160.00358,15746 Z" id="“"></path>
        </g>
    </g>
</svg>
